icon-svg/iptvx.svg

<svg xmlns="http://www.w3.org/2000/svg" viewBox="0 0 24 24"><path fill="#44739e" d="M7.538 3.593H7.5Zv-.002ZM18.24 2H5.76A3.76 3.76 0 0 0 2 5.76v12.48A3.76 3.76 0 0 0 5.76 22h12.48A3.76 3.76 0 0 0 22 18.24V5.76A3.76 3.76 0 0 0 18.24 2M9.551 19.771c-1.587 1.752-2.987 1.523-3.878.868-1.324-.974-1.708-2.068-.2-4.084l2.835-3.7a11.34 11.34 0 0 1 1.243 6.916m8.561.929c-1.177.869-2.145 1.127-3.7-.664l-2.54-3.7-1.764 2.727a20 20 0 0 0-.331-3.737 11.2 11.2 0 0 0-1.129-2.862l-3.5-5.489a2.865 2.865 0 0 1 .642-3.718 2.623 2.623 0 0 1 3.617.236l2.628 3.835 1.985-2.786a11.5 11.5 0 0 0 1.3 6.871l3.289 5.373c.667 1.343.745 2.997-.497 3.914m.413-13.5-3.006 3.921a12.7 12.7 0 0 1-1.081-7.144c1.587-1.752 3-1.516 3.889-.861 1.324.977 1.708 2.068.198 4.084"/></svg>

<?xml version="1.0" encoding="UTF-8"?>
<svg width="24px" fill="#44739e" height="24px" viewBox="0 0 24 24" version="1.1" xmlns="http://www.w3.org/2000/svg" xmlns:xlink="http://www.w3.org/1999/xlink">
            <path d="M 7.538,3.593 H 7.5 7.538 V 3.591 Z M 18.24,2 H 5.76 A 3.759,3.759 0 0 0 2,5.76 V 18.24 A 3.759,3.759 0 0 0 5.76,22 H 18.24 A 3.759,3.759 0 0 0 22,18.24 V 5.76 A 3.759,3.759 0 0 0 18.24,2 Z M 9.551,19.771 C 7.964,21.523 6.564,21.294 5.673,20.639 4.349,19.665 3.965,18.571 5.473,16.555 l 2.835,-3.7 a 11.344,11.344 0 0 1 1.243,6.916 z m 8.561,0.929 c -1.177,0.869 -2.145,1.127 -3.7,-0.664 l -2.54,-3.7 -1.764,2.727 A 20.191,20.191 0 0 0 9.777,15.326 11.224,11.224 0 0 0 8.648,12.464 L 5.148,6.975 A 2.865,2.865 0 0 1 5.79,3.257 2.623,2.623 0 0 1 9.407,3.493 l 2.628,3.835 1.985,-2.786 a 11.48,11.48 0 0 0 1.3,6.871 l 3.289,5.373 c 0.667,1.343 0.745,2.997 -0.497,3.914 z M 18.525,7.2 15.519,11.121 A 12.694,12.694 0 0 1 14.438,3.977 c 1.587,-1.752 3,-1.516 3.889,-0.861 1.324,0.977 1.708,2.068 0.198,4.084 z" />

</svg>
